X:47
T:Nelson and Lolly's Jig
R:jig
C:Brenda Stubbert
O:Cape Breton Island
S:http://www.cranfordpub.com
Z:psc, (re-formatted,updated 9/19/04)
N:http://www.cranfordpub.com/stubbert
H:                                                        copyrights Stubbert Music, SOCAN
Q:288
L:1/8
M:6/8
K:A
F|ECE Edc|BAG Ace|f2 a fec|Bdc BAF|
ECE Edc|BAG Ace|f2 a fec|[1BcB A2:|[2BcB Ace||
|:f2 d fag|fec ece|f2 d fag|[1fec Bce|
f2 d fag|fec ece|faf ecA|BcB Ace:|
[2fec BAF|ECE Edc|BAG Ace|f2 a fec|BcB A2|]
